/* XPM */
static char *drawer[] = {
"32 32 5 1",
"O c #404040",
"B c #6068B0",
"h c #8890D0",
"d c #404878",
"  c None",
"                                ",
"                                ",
"                                ",
"                                ",
"   OOOOOOOOOOOOOOOOOOOOOOOOOO   ",
"   OhhhhhhhhhhhhhhhhhhhhhdddO   ",
"   OhhhhhhhhhhhhhhhhhhhhhdddO   ",
"   OhhhhhhhhhhhhhhhhhhhhhdddO   ",
"   OhhhBBBBBBBBBBBBBBBBBBdddO   ",
"   OhhhBBBBBBBBBBBBBBBBBBdddO   ",
"   OhhhBBddddddddddddddBBdddO   ",
"   OhhhBBdBBBBBBBBBBBBdBBdddO   ",
"   OhhhBBdBBBBBBBBBBBBdBBdddO   ",
"   OhhhBBdBBOOOOOOOOBBdBBdddO   ",
"   OhhhBBdBBOhhhhhhOBBdBBdddO   ",
"   OhhhBBdBBOhhhhhhOBBdBBdddO   ",
"   OhhhBBdBBOOOOOOOOBBdBBdddO   ",
"   OhhhBBdBBBBBBBBBBBBdBBdddO   ",
"   OhhhBBdBBBBBBBBBBBBdBBdddO   ",
"   OhhhBBdBBBBBBBBBBBBdBBdddO   ",
"   OhhhBBdBBBBBBBBBBBBdBBdddO   ",
"   OhhhBBdBBBBBBBBBBBBdBBdddO   ",
"   OhhhBBddddddddddddddBBdddO   ",
"   OhhhBBBBBBBBBBBBBBBBBBdddO   ",
"   OhhhBBBBBBBBBBBBBBBBBBdddO   ",
"   OddddddddddddddddddddddddO   ",
"   OddddddddddddddddddddddddO   ",
"   OddddddddddddddddddddddddO   ",
"   OOOOOOOOOOOOOOOOOOOOOOOOOO   ",
"                                ",
"                                ",
"                                "
};
