/* XPM */
static char *edit[] = {
"32 32 6 1",
"O c #404040",
"W c #F8F8F8",
"T c #9098B8",
"P c #E08830",
"K c #181818",
"  c None",
"                                ",
"                                ",
"                                ",
"     OOOOOOOOOOOOOOOOOO         ",
"     OWWWWWWWWWWWWWWWWO         ",
"     OWWWWWWWWWWWWWWWWO         ",
"     OWWWWWWWWWWWWWWWWO         ",
"     OWWWWWWWWWWWWWWWWO         ",
"     OWWWTTTTTTTTTTWWWO         ",
"     OWWWWWWWWWWWWWWWWO         ",
"     OWWWWWWWWWWWWWWWWO         ",
"     OWWWTTTTTTTTTTWWWO         ",
"     OWWWWWWWWWWWWWWWWOOOOO     ",
"     OWWWWWWWWWWWWWWWWOOOOO     ",
"     OWWWTTTTTTTTTTWWWOOOOO     ",
"     OWWWWWWWWWWWWWWPPPOOOO     ",
"     OWWWWWWWWWWWWWWPPPP        ",
"     OWWWTTTTTTTTTTWPPPP        ",
"     OWWWWWWWWWWWPPPPPPP        ",
"     OWWWWWWWWWWWPPPPWO         ",
"     OWWWWWWWWWKKKPPPWO         ",
"     OWWWWWWWWWKKKPPPWO         ",
"     OWWWWWWWWWKKKWWWWO         ",
"     OWWWWWWWWWKKKWWWWO         ",
"     OWWWWWWWWWWWWWWWWO         ",
"     OWWWWWWWWWWWWWWWWO         ",
"     OWWWWWWWWWWWWWWWWO         ",
"     OWWWWWWWWWWWWWWWWO         ",
"     OOOOOOOOOOOOOOOOOO         ",
"                                ",
"                                ",
"                                "
};
