/* XPM */
static char *fileman[] = {
"32 32 5 1",
"O c #404040",
"B c #6068B0",
"h c #8890D0",
"d c #404878",
"  c None",
"                                ",
"                                ",
"                                ",
"                                ",
"  OOOOOOOOOOOOOOOOO             ",
"  OhhhhhhhhhhhhhhhO             ",
"  OhhhhhhhhhhhhhhhO             ",
"  OBBBBBBBBBBBBBBBO             ",
"  OBBBdddddddddBBBO             ",
"  OBBBdBBBBBBBdBBBO             ",
"  OBBBdBOOOOOOOOOOOOOOOOOOOOOO  ",
"  OBBBdBOOOOOhhhhhhhhhhhhhhhhO  ",
"  OBBBdBOOOOOhhhhhhhhhhhhhhhhO  ",
"  OBBBdBBBBBOBBBBBBBBBBBBBBBBO  ",
"  OBBBdBBBBBOBBBddddddddddBBBO  ",
"  OBBBddddddOBBBdBBBBBBBBdBBBO  ",
"  OBBBBBBBBBOBBBdBOOOOOOBdBBBO  ",
"  OBBBBBBBBBOBBBdBOOOOOOBdBBBO  ",
"  OBBBBBBBBBOBBBdBOOOOOOBdBBBO  ",
"  OBBBBBBBBBOBBBdBBBBBBBBdBBBO  ",
"  OBBBBBBBBBOBBBdBBBBBBBBdBBBO  ",
"  OOOOOOOOOOOBBBddddddddddBBBO  ",
"            OBBBBBBBBBBBBBBBBO  ",
"            OBBBBBBBBBBBBBBBBO  ",
"            OBBBBBBBBBBBBBBBBO  ",
"            OBBBBBBBBBBBBBBBBO  ",
"            OBBBBBBBBBBBBBBBBO  ",
"            OOOOOOOOOOOOOOOOOO  ",
"                                ",
"                                ",
"                                ",
"                                "
};
