/* XPM */
static char *file[] = {
"32 32 5 1",
"O c #404040",
"W c #F8F8F8",
"H c #E8E8E8",
"T c #9098B8",
"  c None",
"                                ",
"                                ",
"                                ",
"       OOOOOOOOOOOOOOOOOO       ",
"       OWWWWWWWWWWOHHHHHO       ",
"       OWWWWWWWWWWOHHHHHO       ",
"       OWWWWWWWWWWOHHHHHO       ",
"       OWWWWWWWWWWOHHHHHO       ",
"       OWWWWWWWWWWOHHHHHO       ",
"       OWWWWWWWWWWOOOOOOO       ",
"       OWWWWWWWWWWWWWWWWO       ",
"       OWWWWWWWWWWWWWWWWO       ",
"       OWWWTTTTTTTTTTWWWO       ",
"       OWWWWWWWWWWWWWWWWO       ",
"       OWWWWWWWWWWWWWWWWO       ",
"       OWWWTTTTTTTTTTWWWO       ",
"       OWWWWWWWWWWWWWWWWO       ",
"       OWWWWWWWWWWWWWWWWO       ",
"       OWWWTTTTTTTTTTWWWO       ",
"       OWWWWWWWWWWWWWWWWO       ",
"       OWWWWWWWWWWWWWWWWO       ",
"       OWWWTTTTTTTTTTWWWO       ",
"       OWWWWWWWWWWWWWWWWO       ",
"       OWWWWWWWWWWWWWWWWO       ",
"       OWWWTTTTTTTWWWWWWO       ",
"       OWWWWWWWWWWWWWWWWO       ",
"       OWWWWWWWWWWWWWWWWO       ",
"       OWWWWWWWWWWWWWWWWO       ",
"       OOOOOOOOOOOOOOOOOO       ",
"                                ",
"                                ",
"                                "
};
