/* XPM */
static char *font[] = {
"32 32 3 1",
"O c #404040",
"B c #6068B0",
"  c None",
"                                ",
"                                ",
"                                ",
"                                ",
"        OOOOOOOO                ",
"        OOOOOOOO                ",
"       OOOOOOOOOO               ",
"       OOOOOOOOOO               ",
"       OOO    OOO               ",
"       OOO    OOO               ",
"       OOO    OOO               ",
"       OOO    OOO               ",
"       OOO    OOO               ",
"       OOOOOOOOOO               ",
"       OOOOOOOOOO  BBBBBB       ",
"       OOOOOOOOOO  BBBBBBB      ",
"       OOO    OOO  BBBBBBB      ",
"       OOO    OOO  BB   BB      ",
"       OOO    OOO  BB   BB      ",
"       OOO    OOO  BBBBBBB      ",
"       OOO    OOO  BBBBBBB      ",
"       OOO    OOO  BB   BB      ",
"       OOO    OOO  BBBBBBB      ",
"                     BBBBB      ",
"                                ",
"                                ",
"                                ",
"                                ",
"                                ",
"                                ",
"                                ",
"                                "
};
