/* XPM */
static char *screenmode[] = {
"32 32 7 1",
"O c #404040",
"F c #B8B8B8",
"R c #C04838",
"G c #30C050",
"B c #6068B0",
"Y c #E0C040",
"  c None",
"                                ",
"                                ",
"                                ",
"  OOOOOOOOOOOOOOOOOOOOOOOOOOOO  ",
"  OFFFFFFFFFFFFFFFFFFFFFFFFFFO  ",
"  OFFFFFFFFFFFFFFFFFFFFFFFFFFO  ",
"  OFFOOOOOOOOOOOOOOOOOOOOOOFFO  ",
"  OFFORRRRRRRRRRGGGGGGGGGGOFFO  ",
"  OFFORRRRRRRRRRGGGGGGGGGGOFFO  ",
"  OFFORRRRRRRRRRGGGGGGGGGGOFFO  ",
"  OFFORRRRRRRRRRGGGGGGGGGGOFFO  ",
"  OFFORRRRRRRRRRGGGGGGGGGGOFFO  ",
"  OFFORRRRRRRRRRGGGGGGGGGGOFFO  ",
"  OFFORRRRRRRRRRGGGGGGGGGGOFFO  ",
"  OFFOBBBBBBBBBBYYYYYYYYYYOFFO  ",
"  OFFOBBBBBBBBBBYYYYYYYYYYOFFO  ",
"  OFFOBBBBBBBBBBYYYYYYYYYYOFFO  ",
"  OFFOBBBBBBBBBBYYYYYYYYYYOFFO  ",
"  OFFOBBBBBBBBBBYYYYYYYYYYOFFO  ",
"  OFFOBBBBBBBBBBYYYYYYYYYYOFFO  ",
"  OFFOOOOOOOOOOOOOOOOOOOOOOFFO  ",
"  OFFFFFFFFFFFFFFFFFFFFFFFFFFO  ",
"  OFFFFFFFFFFFFFFFFFFFFFFFFFFO  ",
"  OFFFFFFFFFFFFFFFFFFFFFFFFFFO  ",
"  OOOOOOOOOOOOOOOOOOOOOOOOOOOO  ",
"             OOOOOO             ",
"             OOOOOO             ",
"             OOOOOO             ",
"          OOOOOOOOOOOO          ",
"          OOOOOOOOOOOO          ",
"                                ",
"                                "
};
