/* XPM */
static char *terminal[] = {
"32 32 5 1",
"O c #404040",
"F c #B8B8B8",
"K c #181818",
"G c #30C050",
"  c None",
"                                ",
"                                ",
"                                ",
"                                ",
"   OOOOOOOOOOOOOOOOOOOOOOOOOO   ",
"   OFFFFFFFFFFFFFFFFFFFFFFFFO   ",
"   OFFFFFFFFFFFFFFFFFFFFFFFFO   ",
"   OFFKKKKKKKKKKKKKKKKKKKKFFO   ",
"   OFFKKKKKKKKKKKKKKKKKKKKFFO   ",
"   OFFKKGGKKKKKKKKKKKKKKKKFFO   ",
"   OFFKKGGKKKKKKKKKKKKKKKKFFO   ",
"   OFFKKKKGGKKKKKKKKKKKKKKFFO   ",
"   OFFKKKKGGKGGGGKKKKKKKKKFFO   ",
"   OFFKKGGKKKGGGGKKKKKKKKKFFO   ",
"   OFFKKGGKKKGGGGKKKKKKKKKFFO   ",
"   OFFKKKKKKKKKKKKKKKKKKKKFFO   ",
"   OFFKKKKKKKKKKKKKKKKKKKKFFO   ",
"   OFFKKKKKKKKKKKKKKKKKKKKFFO   ",
"   OFFKKKKKKKKKKKKKKKKKKKKFFO   ",
"   OFFKKKKKKKKKKKKKKKKKKKKFFO   ",
"   OFFKKKKKKKKKKKKKKKKKKKKFFO   ",
"   OFFKKKKKKKKKKKKKKKKKKKKFFO   ",
"   OFFKKKKKKKKKKKKKKKKKKKKFFO   ",
"   OFFFFFFFFFFFFFFFFFFFFFFFFO   ",
"   OFFFFFFFFFFFFFFFFFFFFFFFFO   ",
"   OFFFFFFFFFFFFFFFFFFFFFFFFO   ",
"   OOOOOOOOOOOOOOOOOOOOOOOOOO   ",
"             OOOOOO             ",
"             OOOOOO             ",
"                                ",
"                                ",
"                                "
};
