/* XPM */
static char *tool[] = {
"32 32 5 1",
"O c #404040",
"W c #F8F8F8",
"H c #E8E8E8",
"R c #E08830",
"  c None",
"                                ",
"                                ",
"                                ",
"       OOOOOOOOOOOOOOOOOO       ",
"       OWWWWWWWWWWOHHHHHO       ",
"       OWWWWWWWWWWOHHHHHO       ",
"       OWWWWWWWWWWOHHHHHO       ",
"       OWWWWWWWWWWOHHHHHO       ",
"       OWWWWWWWWWWOHHHHHO       ",
"       OWWWWWWWWWWOOOOOOO       ",
"       OWWWWWWWWWWWWWWWWO       ",
"       OWWWWWWWWWWWWWWWWO       ",
"       OWWWWWWWWRRRRRRWWO       ",
"       OWWWWWWWWRRRRRRWWO       ",
"       OWWWWWWWWRRRRRRWWO       ",
"       OWWWWWRRRRRRRRRWWO       ",
"       OWWWWWRRRRRRRRRWWO       ",
"       OWWWWWRRRRRWRRRWWO       ",
"       OWWWWWRRRRRWRRRWWO       ",
"       OWWWRRRRRRRWRRRWWO       ",
"       OWWWRRRRRRRWWWWWWO       ",
"       OWWWRRRRWWWWWWWWWO       ",
"       OWWWRRRRWWWWWWWWWO       ",
"       OWWWRRRRWWWWWWWWWO       ",
"       OWWWRRRRWWWWWWWWWO       ",
"       OWWWWWWWWWWWWWWWWO       ",
"       OWWWWWWWWWWWWWWWWO       ",
"       OWWWWWWWWWWWWWWWWO       ",
"       OOOOOOOOOOOOOOOOOO       ",
"                                ",
"                                ",
"                                "
};
