/* XPM */
static char *volume[] = {
"32 32 7 1",
"O c #404040",
"F c #B8B8B8",
"H c #E8E8E8",
"S c #181818",
"W c #F8F8F8",
"L c #30C050",
"  c None",
"                                ",
"                                ",
"                                ",
"                                ",
"                                ",
"                                ",
"  OOOOOOOOOOOOOOOOOOOOOOOOOOOO  ",
"  OHHHHHHHHHHHHHHHHHHHHHHHHHHO  ",
"  OHHHHHHHHHHHHHHHHHHHHHHHHHHO  ",
"  OHHFFFFFFFFFFFFFFFFFFFFFFFFO  ",
"  OHHFFFFFFFFFFFFFFFFFFFFFFFFO  ",
"  OHHFOOOOOOOOOOOOOOOOOOOOFFFO  ",
"  OHHFOSSSSSSSSSSSSSSSSSSOFFFO  ",
"  OHHFOOOOOOOOOOOOOOOOOOOOFFFO  ",
"  OHHFFFFFFFFFFFFFFFFFFFFFFFFO  ",
"  OHHFFFFFFFFFFFFFFFFFFFFFFFFO  ",
"  OHHFOOOOOOOOOOOOOFFFFFFFFFFO  ",
"  OHHFOWWWWWWWWWWWOFFFFFFFFFFO  ",
"  OHHFOWWWWWWWWWWWOFFFFFFFFFFO  ",
"  OHHFOWWWWWWWWWWWOFFFFFFFFFFO  ",
"  OHHFOWWWWWWWWWWWOFFFFFFFFFFO  ",
"  OHHFOWWWWWWWWWWWOFFFFLLLFFFO  ",
"  OHHFOOOOOOOOOOOOOFFFFLLLFFFO  ",
"  OHHFFFFFFFFFFFFFFFFFFLLLFFFO  ",
"  OHHFFFFFFFFFFFFFFFFFFFFFFFFO  ",
"  OHHFFFFFFFFFFFFFFFFFFFFFFFFO  ",
"  OHHFFFFFFFFFFFFFFFFFFFFFFFFO  ",
"  OOOOOOOOOOOOOOOOOOOOOOOOOOOO  ",
"                                ",
"                                ",
"                                ",
"                                "
};
